X:1
T:despa
T:Despacito
%%score 1 2 3
L:1/8
Q:1/2=80
M:4/4
K:Bb
V:1 treble transpose=-9 nm="Alto Saxophone" snm="A. Sax."
V:2 bass nm="Trombone" snm="Tbn."
V:3 treble transpose=-2 nm="Clarinete en Si♭" snm="Cl. Si♭"
V:1
[K:G]!mp!!<(! G3 z F4!<)! |!mf! G8- | G4 dcB.A | c4 e4- | e4 edcB | d2 B2 G4 | B4 cBc.d | f6 z2 | %8
 z8 |!mf! B8- | B2 G4 B2 | c4 G4 | c8 | d8 | d6 B2 | A8- | A4 z2 z2 | e3 B z2 ef | .g>a- ag f2 e2 | %19
 c3 a- a2 g2- | g6 z2 | gf d2 gf d2 | gf d2 .g2 af- | f8- | f z z2 z4 |!f! e4 .B.eef | %26
 .g2 gf z e2 e- | e4 .c.eef | .g2 gf z e2 d- | d4 Bd.B.d | .f2 fg z a3/2 z/ !>!a- | a f4 z z2 | %32
 z4 (3z2 !>!A2 d2 |!f! e3 B2 z B2 | z3 B2 z G2 | E3 c2 z c2 | z3 c2 z G2 | G3 B2 z B2 | %38
 z3 B2 z B2 | z3 A2 z A2 |{/f} g3 z f3 z |!ff! e3 B z BBB | Beee e2 de- | e c2 z cccc | %44
 ceee e2 fg- | g d2 z dddd | dggg g2 aa- | a f3 z4 | g4 a4 | (ba/) z/ (ba/) z/ b2 .ab- | %50
 ba/ z/ (ba) b2 c'c'- | c'2 g4 gc'- | c'2 .c'.c' c'2 .d'c'- | c' b6 z | .b.b.b.b b2 .c'b- | %55
 b2 a6- | a3 z z2!ppp! !>!d2 | e6 de- | e6 !>!g2 | !>!g6 ge- | e6 !>!g2 | !>!g6 fe | d6 !>!g2 | %63
 !>!f8 |!mf! A2 z !>!A3 !>!d2 | e8- | e6 eB | c8- | c6 ce | g8 | (3:2:2d2 d- !^!d2 g2 dB | d8 | %72
 z4!ff! ge/ z/ ge/ z/ | ge/ z/ ge/ z/ gege | !tenuto!a2 .g2 (g/e/)g ge | ge/ z/ ge gege | %76
 !tenuto!a2 .g2 .gg/ z/ ga | .bb/ z/ bd'/ z/ d'b ag/ z/ | !tenuto!g2 .g2 .b.b bb | %79
 .a>a- ag/ z/ .a>a- ag | z3 A3 !>!d2 | e3 B2 z B2 | z2 z B2 z G2 | E3 c2 z c2 | z2 z c2 z G2 | %85
 G3 B2 z B2 | z2 z B2 z B2 | z3 F2 z F2 | z2 z!ff! B .g>g- gg | e>e- e/ z/ .B .g.g.g.g | %90
 .e>e- eB .g>g- g/ z/ .g | .e>e- ec/ z/ .g.g gg | !>!e4 ag/ z/ ag/ z/ | a>g- gg/ z/ ag/ z/ ag/ z/ | %94
 a>g- g z .g>g- gg | .f>f- fe .g>g- gg | f6 z2 |!mf!{/f} g3 z !>!f3 z |!f! e3 B z BBB | %99
 Beee f>g- gg- | g e4 z cc | ceee f>g- gg- | g2 d3 z dd | Bdfg g>a- aa- | a f6 z | z4 z4 | e8- | %107
 !fermata!e4 z4 | z8 |] %109
V:2
 z8 |!p! G,8- | G,4 F,E, D,2 | E,8- | E,4 E,2 G,2 | F,8- | F,4 E,3 .F, | F,6 z2 |!mf! B,3 z A,3 z | %9
 G,3 D, z2 G,A, | .B,>C z B, A,2 G,2 | E,3 B,- B, z B,2- | B,6 !>!G,2 |!mp!!f! B,2 F,2 B,2 F,2 | %14
 B,2 F,2 .B,2 CA,- | A,8- | A,6 !>!F,2 |!p! .G,2 .G,2 .G,2 .G,2 | .G,2 .G,2 .G,2 .G,2 | %19
 .E,2 .E,2 .E,2 .E,2 | .E,2 .E,2 .E,2 .E,2 | .D,2 .D,2 .D,2 .D,2 | .D,2 .D,2 .D,2 .D,2 | %23
 .F,2 .F,2 .F,2 .F,2 | .F,2 z2 z2 !>!F,,2 | B,,8- | B,,6 B,,G,, | G,,8- | G,,6 G,,B,, | D,8- | %30
 D,6 B,,F,, | A,,6 z2 | z4 (3z2 !>!C,2 F,2 |!f! G,3 D,2 z D,2 | z2 z D,2 z B,,2 | G,,3 E,2 z E,2 | %36
 z2 z E,2 z B,,2 | B,,3 D,2 z D,2 | z2 z D,2 z D,2 | z3 A,,2 z A,,2 | z3 C,3 !>!F,2 | %41
!f! G,3 D,2 z D,2 | z3 D,2 z B,,2 | G,,3 E,2 z E,2 | z3 E,2 z B,,2 | B,,3 D,2 z D,2 | %46
 z3 D,2 z D,2 | z3 C,2 z C,2 |!<(! D,4 z2!mf! C,2!<)! |!mf! D,6 C,D,- | D,6 !>!G,2 | !>!G,6 G,E,- | %52
 E,6 !>!G,2 | !>!F,6 F,E, | D,6 !>!F,2 | !>!F,8- | F,6 .F,2 |!mf! D,2 z D,2 z D,2 | %58
 D,2 z D,2 z B,,2 | B,,2 z B,,2 z B,,2 | B,,2 z B,,2 z E,2 | F,2 z F,2 z F,2 | F,2 z F,2 z D,2 | %63
 C,2 z C,2 z C,2 |!ff!!ff! z3 .B, B,A,/ z/ B,A,/ z/ | B,>G,- G, z B,G, B,G,/ z/ | %66
 B,>G,- G, z B,G, B,G,/ z/ | B,>G,- G, z B,A, B,A,/ z/ | B,>G,- G,2 CB,CB, | %69
 CB,/ z/ CB,/ z/ CB,/ z/ CD/ z/ | (3:2:2B,2 B,- !^!B,2 CB,CB, | CB,/ z/ CB,/ z/ CB,/ z/ CD/ z/ | %72
 (3:2:2B,2 B, !^!B,2 (3z2!mf! !>!C,2 !>!F,2 | G,3 D,2 z D,2 | z2 z D,2 z B,,2 | G,,3 E,2 z E,2 | %76
 z2 z E,2 z B,,2 | B,,3 D,2 z D,2 | z2 z D,2 z D,2 | z3 A,,2 z A,,2 | !>!C2 !^!B,D, .B,>B,- B,B, | %81
 .G,>G,- G,D, .B,.B,.B,.B, | .G,>G,- G,D, .B,>B,- B,B, | .G,>G,- G,E, .B,.B,.B,.B, | G,4 CB,CB, | %85
 C>B,- B,B,/ z/ CB,/ z/ CB, | C>B,- B, z .B,>B,- B,B, | .A,>A,- A,G, .B,>B,- B,B, | %88
 !>!A,3 z!mp! C,2 !>!F,2 | G,4 z2 D,2 | G,4 z2 D,2 | B,,3 E,2 z B,,2 | G,,4 z2 B,,2 | D,4 z2 D,2 | %94
 D,3 z F,4 | F,3 D,2 z A,,2 | A,,6 z2 |!mp! B,3 z !>!A,3 z |!mf! D,3 B,,- B,,4- | B,, D,3 F,3 G,- | %100
 G, E,4 z B,,2- | B,, E,3 F,>F,- F,F,- | F,2 D,4 D,2 | F,3 F,- F,>A,- A,A,- | A, F,6 z | B,4 A,4 | %106
 G,8- | !fermata!G,4 z4 | z8 |] %109
V:3
[K:C] z8 |!p! A8- | A4 GFE.D | A8 | z4 F2 A2 | G8- | G4 FEF.G | B6 z2 |!mf! c3 z B3 z | z8 | z8 | %11
 z8 | z8 | z8 | z8 | z8 | z8 | .A2 .A2 .A2 .A2 | .A2 .A2 .A2 .A2 | .c2 .c2 .c2 .c2 | %20
 .c2 .c2 .c2 .c2 | .G2 .G2 .G2 .G2 | .G2 .G2 .G2 .G2 | B8 | .B2 z2 z2 !>!G2 | c8- | c6 cA | A8- | %28
 A6 Ac | e8- | e6 cG | B6 z2 | z4 (3z2 !>!D2 G2 |!f! A3 E2 z E2 | z3 E2 z C2 | A,3 F2 z F2 | %36
 z3 F2 z C2 | C3 E2 z E2 | z3 E2 z E2 | z3 D2 z D2 | z8 | z8 | z8 | z8 | z8 | z8 | z8 | z8 | z8 | %49
 z8 | z8 | z8 | z8 | z8 | z8 | z8 | z2 z2 z2!ff! !>!G2 | A6 GA- | A6 !>!c2 | !>!c6 cA- | A6 !>!c2 | %61
 !>!c6 BA | G6 !>!c2 | !>!B8 |!mf! D2 z !>!D3 !>!G2 | A8- | A6 AE | F8- | F6 FA | c8 | %70
 (3:2:2G2 G- !^!G2 c2 GE | G8 | z8 | z8 | z8 | z8 | z8 | z8 | z8 | z8 | z3 D3 !>!G2 | A3 E2 z E2 | %82
 z2 z E2 z C2 | A,3 F2 z F2 | z2 z F2 z C2 | C3 E2 z E2 | z2 z E2 z E2 | z3 B,2 z B,2 | %88
 z4!mp! d2 !>!g2 | a4 z2 e2 | a4 z2 e2 | c3 f2 z c2 | A4 z2 c2 | e4 z2 e2 | e3 z g4 | g3 e2 z B2 | %96
 B6 z2 |!mf!{/B} c3 z !>!B3 z |!f! A3 E z EEE | EAAA B>c- cc- | c A4 z FF | FAAA B>c- cc- | %102
 c2 G3 z GG | EGBc c>d- dd- | d B6 z | z8 | A8- | !fermata!A4 z4 | z8 |] %109

